icons/sf425-rejected.svg

<svg
  xmlns="http://www.w3.org/2000/svg"
  viewBox="0 0 500 500"
  width="500"
  height="500"
  fill="#ffffff"
>
  <path
    class="cls-1"
    d="M102.66 198.25c8.49 4.34 21.55 8.68 35 8.68 14.51 0 22.17-6 22.17-15.08 0-8.67-6.63-13.63-23.41-19.62-23.21-8.06-38.34-20.86-38.34-41.1 0-23.76 19.89-41.93 52.84-41.93 15.75 0 27.36 3.3 35.64 7l-7 25.41a66.48 66.48 0 0 0-29.24-6.61c-13.68 0-20.31 6.19-20.31 13.42 0 8.88 7.88 12.81 25.91 19.62 24.66 9.09 36.26 21.9 36.26 41.52 0 23.34-18 43.17-56.36 43.17-16 0-31.71-4.14-39.59-8.47z"
  />
  <path
    class="cls-1"
    d="M213.54 91.47h85.38v25.82h-53.67v31.81h50.14v25.61h-50.14v56h-31.71z"
  />
  <path
    class="cls-1"
    d="M236.27 361.76H101a56.66 56.66 0 0 1-56.6-56.59V81.61A56.66 56.66 0 0 1 101 25h195a56.66 56.66 0 0 1 56.6 56.59v172.69c4.1-.39 8.26-.6 12.47-.6 2.53 0 5 .09 7.54.23V81.61A76.7 76.7 0 0 0 296.05 5H101a76.7 76.7 0 0 0-76.57 76.61v223.56A76.7 76.7 0 0 0 101 381.78h133.32a130.58 130.58 0 0 1 1.95-20.02z"
  />
  <path
    class="cls-1"
    d="M365.12 274.09a110.46 110.46 0 1 0 110.45 110.45 110.45 110.45 0 0 0-110.45-110.45zM419.33 423a12 12 0 1 1-17 17l-38.4-38.41L325.52 440a12 12 0 1 1-17-17L347 384.54l-38.41-38.4a12 12 0 1 1 17-17l38.41 38.4 38.4-38.4a12 12 0 0 1 17 17l-38.4 38.4z"
  />
  <path
    class="cls-1"
    d="M294.35 274.49H86.57v20h184.06a131 131 0 0 1 23.72-20z"
  />
</svg>

<svg xmlns="http://www.w3.org/2000/svg" viewBox="0 0 500 500">
  <defs>
    <style>
      .cls-1 {
        fill: #231f20;
      }
    </style>
  </defs>
  <g id="sf425-rejected">
    <path id="s" class="cls-1" d="M102.66,198.25c8.49,4.34,21.55,8.68,35,8.68,14.51,0,22.17-6,22.17-15.08,0-8.67-6.63-13.63-23.41-19.62-23.21-8.06-38.34-20.86-38.34-41.1,0-23.76,19.89-41.93,52.84-41.93,15.75,0,27.36,3.3,35.64,7l-7,25.41A66.48,66.48,0,0,0,150.32,115c-13.68,0-20.31,6.19-20.31,13.42,0,8.88,7.88,12.81,25.91,19.62,24.66,9.09,36.26,21.9,36.26,41.52,0,23.34-18,43.17-56.36,43.17-16,0-31.71-4.14-39.59-8.47Z"/>
    <path id="f" class="cls-1" d="M213.54,91.47h85.38v25.82H245.25V149.1h50.14v25.61H245.25v56H213.54Z"/>
    <path id="outline" class="cls-1" d="M236.27,361.76H101a56.66,56.66,0,0,1-56.6-56.59V81.61A56.66,56.66,0,0,1,101,25h195a56.66,56.66,0,0,1,56.6,56.59V254.28c4.1-.39,8.26-.6,12.47-.6,2.53,0,5,.09,7.54.23V81.61A76.7,76.7,0,0,0,296.05,5H101A76.7,76.7,0,0,0,24.43,81.61V305.17A76.7,76.7,0,0,0,101,381.78H234.32A130.58,130.58,0,0,1,236.27,361.76Z"/>
    <path id="cross" class="cls-1" d="M365.12,274.09A110.46,110.46,0,1,0,475.57,384.54,110.45,110.45,0,0,0,365.12,274.09ZM419.33,423a12,12,0,1,1-17,17l-38.4-38.41-38.41,38.41a12,12,0,1,1-17-17L347,384.54l-38.41-38.4a12,12,0,1,1,17-17l38.41,38.4,38.4-38.4a12,12,0,0,1,17,17l-38.4,38.4Z"/>
    <path id="bar" class="cls-1" d="M294.35,274.49H86.57v20H270.63A131,131,0,0,1,294.35,274.49Z"/>
  </g>
</svg>
